X: 22
T: Missa [Ad fugam] / Kyrie
N: Derived from Ort1006a-Missa_Ad_fugam-Kyrie.krn
C: Marbrianus de Orto
%%abc-version 2.0
%%abcx-abcm2ps-target-version 5.9.1 (29 Sep 2008)
%%abc-creator hum2abc beta
%%abcx-conversion-date 2019/02/17 07:28:37
%%abc-edited-by Jesse Rodin
%%abc-edited-by Jesse Rodin 8/7/2013
%%abcx-initial-encoding-date 2013/08/09/
%%humdrum-veritas 1530882093
%%humdrum-veritas-data 1189724503
%%linebreak <none>
%%barnumbers 0
L: 1/4
M: 3/1
Q: 1/2=120
%%staves [1 2 3 4]
V: 1 clef=treble
V: 2 clef=treble-8
V: 3 clef=treble-8
V: 4 clef=bass
K: F
[V:1] G8B4 | 
[V:2] G3AB2c2d4 | 
[V:3] z12 | 
[V:4] G,6C,2G,4 | 
[V:1] A2G2A4G4 | 
[V:2] z2c4A2c4 | 
[V:3] c8_e4 | 
[V:4] F,2E,2F,4C,4 | 
[V:1] z2A4F2E4 | 
[V:2] G2c2A8 | 
[V:3] d2c2d4c4 | 
[V:4] B,,2A,,2D,4A,,4 | 
[V:1] D3EF2G4^F2 | 
[V:2] F2B3cd4d2 | 
[V:3] z2d4B2A4 | 
[V:4] B,,6G,,2D,4 | 
[V:1] G4z4z4 | 
[V:2] B2d3ef4e2 | 
[V:3] G3AB2c4B2 | 
[V:4] z2G,4F,2G,4 | 
[V:1] A8c4 | 
[V:2] f6d2e4 | 
[V:3] c4z4z4 | 
[V:4] F,8C,4 | 
[V:1] B4A8 | 
[V:2] d4f4z2F2 | 
[V:3] d8f4 | 
[V:4] G,4F,4D,4 | 
[V:1] G3AB2A4GF | 
[V:2] c4d4A4- | 
[V:3] _e4d8 | 
[V:4] z2C,2G,,2D,4D,2 | 
[V:1] E4z4z4 | 
[V:2] A2c2G3AB2AG | 
[V:3] c3d_e2d4cB | 
[V:4] A,,3B,,C,2B,,2G,,4 | 
[V:1] z2D2F4F4 | 
[V:2] F3Dd3c/B/A2d2 | 
[V:3] A4z4z4 | 
[V:4] D,12 | 
[V:1] G2D2z2G4F2 | 
[V:2] G2B2GABGd2z2 | 
[V:3] z2G2B4B4 | 
[V:4] z4_E,4D,4 | 
[V:1] E3FGEA2G4 | 
[V:2] G4E2F2E2G2 | 
[V:3] c2G2z2c4B2 | 
[V:4] C,4z4z2G,2 | 
[V:1] z2A4D2E2G2 | 
[V:2] c2d2A2B2G4 | 
[V:3] A3BcAd2c4 | 
[V:4] F,2D,2F,2B,,2C,2_E,2 | 
[V:1] F3EF2G2E4 | 
[V:2] A2B6c4 | 
[V:3] z2d4G2A2c2 | 
[V:4] D,2B,,2D,2_E,2C,4 | 
[V:1] D2B3GG4^F2 | 
[V:2] d2g4e2d4- | 
[V:3] B3AB2c2A4 | 
[V:4] G,,4G,2C,2D,4 | 
[V:1] G12 ||  
[V:2] d12 ||  
[V:3] G12 ||  
[V:4] G,,12 ||  
[V:1]  [K:Bb] [K:clef=treble][M:2/1]z8 | 
[V:2]  [K:Bb] [K:clef=treble-8][M:2/1]B6AG | 
[V:3]  [K:Bb] [K:clef=treble-8][M:2/1]z8 | 
[V:4]  [K:Bb] [K:clef=bass][M:2/1]G,8 | 
[V:1] z8 | 
[V:2] B2AGF4 | 
[V:3] z8 | 
[V:4] D,4D,4 | 
[V:1] z8 | 
[V:2] z2g4f=e | 
[V:3] z8 | 
[V:4] E,6D,C, | 
[V:1] z8 | 
[V:2] g2f=ed4 | 
[V:3] z8 | 
[V:4] E,2D,C,B,,4 | 
[V:1] B6AG | 
[V:2] z2d4cB | 
[V:3] z8 | 
[V:4] G,,8 | 
[V:1] B2AGF4 | 
[V:2] d2cBA2d2 | 
[V:3] z8 | 
[V:4] z8 | 
[V:1] G4C2G2- | 
[V:2] c6BA | 
[V:3] e6dc | 
[V:4] z8 | 
[V:1] G2F=ED4 | 
[V:2] G8 | 
[V:3] e2dcB4 | 
[V:4] z8 | 
[V:1] C4z2G2 | 
[V:2] g4f2=e2 | 
[V:3] c4F2c2- | 
[V:4] z8 | 
[V:1] A2c4B2 | 
[V:2] c4d4 | 
[V:3] c2BAG4 | 
[V:4] z4G,4 | 
[V:1] c4z4 | 
[V:2] z2A2c3B | 
[V:3] F4z2c2 | 
[V:4] A,2C3B,A,G, | 
[V:1] z8 | 
[V:2] AGF2G3A | 
[V:3] d2f4e2 | 
[V:4] F,2E,D,C,4 | 
[V:1] z4F4 | 
[V:2] B4A2B2- | 
[V:3] f4z4 | 
[V:4] B,,4D,4 | 
[V:1] G4A2G2- | 
[V:2] B2c2A2B2 | 
[V:3] z8 | 
[V:4] E,4F,2E,2- | 
[V:1] G2=E2F2G2 | 
[V:2] c4z2G2- | 
[V:3] z4B4 | 
[V:4] E,2C,2D,2E,2 | 
[V:1] =E4z4 | 
[V:2] G2A2B2A2- | 
[V:3] c4d2c2- | 
[V:4] C,4B,,2F,2- | 
[V:1] A4G2A2- | 
[V:2] A2d3=ef2- | 
[V:3] c2A2B2c2 | 
[V:4] F,E,F,2G,2F,2- | 
[V:1] A2c2B2AG | 
[V:2] f2f2d2G2 | 
[V:3] A4z4 | 
[V:4] F,2F,2G,2F,E, | 
[V:1] F4z4 | 
[V:2] A3GA2B2 | 
[V:3] d4c2d2- | 
[V:4] D,4z2G,2 | 
[V:1] z8 | 
[V:2] A2c2B2AG | 
[V:3] d2f2e2dc | 
[V:4] F,4G,2F,E, | 
[V:1] z8 | 
[V:2] F4G2A2- | 
[V:3] B4z4 | 
[V:4] D,4C,4 | 
[V:1] z8 | 
[V:2] AGABc2B2- | 
[V:3] z8 | 
[V:4] D,2F,2E,2D,2- | 
[V:1] z4z2C2 | 
[V:2] B2G4^F2 | 
[V:3] z8 | 
[V:4] D,2C,B,,A,,4 | 
[V:1] D2F2=E2D2- | 
[V:2] G2A4B2- | 
[V:3] z8 | 
[V:4] G,,2D,2C,2B,,2- | 
[V:1] D2CB,A,4 | 
[V:2] B2G4d2 | 
[V:3] z4z2F2 | 
[V:4] B,,2C,2D,4 | 
[V:1] z2D=EFGE2 | 
[V:2] B2G2F2GA | 
[V:3] G2B2A2G2- | 
[V:4] G,,4z2C,2 | 
[V:1] D2G4^F2 | 
[V:2] Bcd6- | 
[V:3] G2FED4 | 
[V:4] G,4A,4 | 
[V:1] G8 ||  
[V:2] d8 ||  
[V:3] z2G6 ||  
[V:4] G,8 ||  
[V:1]  [K:F] [K:clef=treble][M:3/1]z12 | 
[V:2]  [K:F] [K:clef=treble-8][M:3/1]d4A2d2c4 | 
[V:3]  [K:F] [K:clef=treble-8][M:3/1]z12 | 
[V:4]  [K:F] [K:clef=bass][M:3/1]D,3E,F,2G,2A,4 | 
[V:1] D3EF2G2A4 | 
[V:2] B2f4B2c4 | 
[V:3] z12 | 
[V:4] B,4A,2G,4F,2 | 
[V:1] B4G4z2D2 | 
[V:2] B4_e4f4 | 
[V:3] G3AB2c2d4 | 
[V:4] G,2_E,4C,4B,,2 | 
[V:1] G3FG2A2F2G2 | 
[V:2] _e2c2G2c2B2c2 | 
[V:3] _e4c4z2G2 | 
[V:4] C,3D,E,2F,2D,2C,2- | 
[V:1] z2G2A2F2G4 | 
[V:2] G4z4G4 | 
[V:3] c3Bc2d2B2c2 | 
[V:4] C,D,E,2F,2D,2z2C,2 | 
[V:1] c4B4A4 | 
[V:2] A2F2G4z2c2 | 
[V:3] z2c2d2B2c4 | 
[V:4] A,,4G,,2G,2F,3E, | 
[V:1] z4G4G4 | 
[V:2] d2B2c4B2G2 | 
[V:3] f4_e4d4 | 
[V:4] D,4C,4G,4 | 
[V:1] F4G2E2F2G2 | 
[V:2] A4G2A3Bc2 | 
[V:3] z4c4c4 | 
[V:4] D,4z2C,2F,2C,2 | 
[V:1] D4G2FED2C2 | 
[V:2] d2G4c2G2A2 | 
[V:3] B4c2A2B2c2 | 
[V:4] G,4C,4z4 | 
[V:1] D4z2E4D2- | 
[V:2] B4c4z4 | 
[V:3] G4c2BAG2F2 | 
[V:4] z4C,6D,2 | 
[V:1] D2C2D4z4 | 
[V:2] z2G2A2F2G2D2- | 
[V:3] G4z2A4G2- | 
[V:4] _E,4D,4G,,4 | 
[V:1] C4B,3CDEF2- | 
[V:2] D2C2D2z2d4 | 
[V:3] G2^F2G4z4 | 
[V:4] A,,4G,,2G,3F,D,2- | 
[V:1] FGA2B3AG2F2 | 
[V:2] f4B4c2d2 | 
[V:3] F4_E3FGAB2- | 
[V:4] D,E,F,2G,3F,E,2D,2 | 
[V:1] z2F2c3BA2G2 | 
[V:2] G2A2z4F2G2- | 
[V:3] Bcd2_e3dc2B2 | 
[V:4] E,2D,2C,4z2_E,2 | 
[V:1] B4A8 | 
[V:2] G2d4d2A4 | 
[V:3] z2B2f3_ed2c2 | 
[V:4] G,4D,4F,4 | 
[V:1] G3AB2A4GF | 
[V:2] c4F3GA4- | 
[V:3] _e4d8 | 
[V:4] C,4B,,2D,4D,2 | 
[V:1] E4z2A3GG2- | 
[V:2] A2c4A2B2d2- | 
[V:3] c3d_e2d4cB | 
[V:4] A,,3B,,C,2D,2G,,4 | 
[V:1] G2^F2G8 |]  
[V:2] d12 |]  
[V:3] A4G8 |]  
[V:4] D,4G,,8 |]  



